packages/ui-icons/svg/Solid/mic-off.svg

<svg viewBox="0 0 1920 1920" xmlns="http://www.w3.org/2000/svg">
    <path d="M666.286 1242.8c-88.168-79.79-143.65-195.06-143.65-323.033V435.679C522.636 195.475 718.111 0 958.315 0c176.955 0 329.645 106.09 397.775 257.997L1536.8 0l92.38 64.669L331.381 1917.48 239 1852.81l305.289-435.84C412.414 1301.53 329 1132.02 329 943.408V709.98h96.818v233.428c0 155.812 67.32 296.242 174.393 393.722l66.075-94.33Zm129.034 207.58-57.716 82.4c54.294 20.4 112.129 33.5 172.304 38.1v252.3H667.861V1920h580.909v-96.82h-242.044v-252.3c324.464-24.8 580.904-296.76 580.904-627.472V709.98h-96.82v233.428c0 293.552-238.94 532.492-532.495 532.492-56.824 0-111.601-8.95-162.995-25.52Zm598.67-854.695L868.36 1346.11c29.036 6.12 59.127 9.34 89.955 9.34 240.205 0 435.675-195.48 435.675-435.683V595.685Z" fill-rule="evenodd"/>
</svg>

<svg viewBox="0 0 1920 1920" version="1.1" xmlns="http://www.w3.org/2000/svg">
    <path d="M666.286,1242.8 C578.118,1163.01 522.636,1047.74 522.636,919.767 L522.636,435.679 C522.636,195.475 718.111,0 958.315,0 C1135.27,0 1287.96,106.09 1356.09,257.997 L1536.8,0 L1629.18,64.6686 L331.381,1917.48 L239,1852.81 L544.289,1416.97 C412.414,1301.53 329,1132.02 329,943.408 L329,709.98 L425.818,709.98 L425.818,943.408 C425.818,1099.22 493.138,1239.65 600.211,1337.13 L666.286,1242.8 Z M795.32,1450.38 L737.604,1532.78 C791.898,1553.18 849.733,1566.28 909.908,1570.88 L909.908,1823.18 L667.861,1823.18 L667.861,1920 L1248.77,1920 L1248.77,1823.18 L1006.726,1823.18 L1006.726,1570.88 C1331.19,1546.08 1587.63,1274.12 1587.63,943.408 L1587.63,709.98 L1490.81,709.98 L1490.81,943.408 C1490.81,1236.96 1251.87,1475.9 958.315,1475.9 C901.491,1475.9 846.714,1466.95 795.32,1450.38 Z M1393.99,595.685 L868.36,1346.11 C897.396,1352.23 927.487,1355.45 958.315,1355.45 C1198.52,1355.45 1393.99,1159.97 1393.99,919.767 L1393.99,595.685 Z" stroke="none" stroke-width="1" fill-rule="evenodd"/>
</svg>
